X:1
T:Buxtehude - Aria:  La Capricciosa in G Minor.
%%score { 1 | 2 }
L:1/8
Q:1/4=100
M:4/4
K:G
V:1 treble nm="Harpsichord" snm="Hch."
V:2 bass 
V:1
"^Partita 18"!f! z/ G/B/d/ z/ G/B/d/ z/ G/c/e/ z/ G/c/e/ | %1
 z/ G/B/d/ z/ E/A/c/ z/ D/G/B/ z/ B,/D/G/ | z/ D/G/B/ z/ D/G/B/ z/ E/A/c/ z/ D/G/B/ | %3
 z/ C/E/A/ z/ A,/C/F/ z/ B,/D/G/ z/ B,/D/G/ :: z/ D/G/B/ z/ D/G/B/ z/ E/A/c/ z/ E/A/c/ | %5
 z/ C/F/A/ z/ C/F/A/ z/ D/G/B/ z/ B,/D/G/ | z/ D/G/B/ z/ G/B/d/ z/ E/A/c/ z/ D/G/B/ | %7
 z/ C/E/A/ z/ C/F/A/ z/ B,/D/G/ z/ B,/D/G/ :| %8
V:2
 G,G,,G,G,, G,G,,G,G,, | G,G,,G,G,, G,G,,G,G,, | G,G,,G,G,, G,G,,G,G,, | G,G,,G,G,, G,G,,G,G,, :: %4
 G,G,,G,G,, G,G,,G,G,, | G,G,,G,G,, G,G,,G,G,, | G,G,,G,G,, G,G,,G,G,, | G,G,,G,G,, G,G,,G,G,, :| %8

